Sources/FrostedUI/Resources/Icons.xcassets/plane12.imageset/plane-12.svg

<svg width="12" height="12" viewBox="0 0 12 12" fill="none" xmlns="http://www.w3.org/2000/svg" data-fui-icon="true">
  <path
    d="M6.50012 1.00195C6.8213 1.00199 7.10674 1.20667 7.21008 1.51074L8.13586 4.23828H9.8634C10.3195 4.23831 10.798 4.41359 11.1652 4.6709C11.5177 4.91796 11.9376 5.36806 11.9376 6C11.9376 6.63187 11.5177 7.08202 11.1652 7.3291C10.798 7.58637 10.3194 7.76169 9.8634 7.76172H8.13586L7.21008 10.4883L6.50012 10.2471V10.248L7.21008 10.4883C7.10685 10.7926 6.82144 10.998 6.50012 10.998H4.93762C4.73062 10.998 4.5325 10.9126 4.39075 10.7617C4.24905 10.6109 4.1767 10.4077 4.18958 10.2012L4.34192 7.76172H3.66125L2.66711 8.75488C2.52656 8.89544 2.33561 8.9745 2.13684 8.97461H0.812622C0.566247 8.97461 0.335467 8.85406 0.195435 8.65137C0.0554398 8.44853 0.0240664 8.18943 0.11145 7.95898L0.853638 6L0.11145 4.04102C0.0240961 3.81058 0.0554331 3.55145 0.195435 3.34863C0.335465 3.14591 0.566231 3.02441 0.812622 3.02441H2.13684L2.28333 3.03906C2.42754 3.06785 2.56159 3.13863 2.66711 3.24414L3.66125 4.23828H4.34192L4.18958 1.79883C4.17667 1.59223 4.24902 1.38916 4.39075 1.23828C4.5325 1.08744 4.73062 1.00195 4.93762 1.00195H6.50012ZM5.88879 4.94141L5.14075 4.9873V4.98828L5.88879 4.94141C5.90173 5.148 5.82833 5.35105 5.68665 5.50195C5.54502 5.65264 5.34753 5.73813 5.14075 5.73828H3.35071C3.1518 5.73828 2.96011 5.65921 2.81946 5.51855L3.35071 4.98828V4.9873L2.81946 5.51855L1.9425 4.6416L2.35754 5.73438C2.42235 5.90553 2.42237 6.09447 2.35754 6.26562L1.94348 7.35645L2.81946 6.48145C2.9601 6.34086 3.15185 6.26172 3.35071 6.26172H5.14075C5.34758 6.26187 5.54501 6.34729 5.68665 6.49805C5.82837 6.64893 5.9017 6.85199 5.88879 7.05859L5.73547 9.49805H5.96301L6.88782 6.77051L6.93469 6.66113C7.06287 6.4182 7.31675 6.26186 7.59778 6.26172H9.8634C9.96588 6.26169 10.1498 6.20924 10.3048 6.10059C10.3588 6.06269 10.3939 6.02655 10.4161 6C10.3939 5.97338 10.3591 5.93648 10.3048 5.89844C10.1498 5.78984 9.96585 5.73831 9.8634 5.73828H7.59778C7.31677 5.73814 7.06288 5.58177 6.93469 5.33887L6.88782 5.22949L5.96301 2.50195H5.73547L5.88879 4.94141Z"
    fill="currentColor"
  />
</svg>

<svg xmlns="http://www.w3.org/2000/svg" width="12" height="12" fill="none" data-fui-icon="true" viewBox="0 0 12 12"><path fill="currentColor" d="M6.5 1.002a.75.75 0 0 1 .71.509l.926 2.727h1.727c.457 0 .935.176 1.302.433.353.247.773.697.773 1.329s-.42 1.082-.773 1.33c-.367.256-.846.432-1.302.432H8.136l-.926 2.726-.71-.24.71.24a.75.75 0 0 1-.71.51H4.938a.75.75 0 0 1-.748-.797l.152-2.44h-.68l-.995.994a.75.75 0 0 1-.53.22H.813A.75.75 0 0 1 .11 7.959L.854 6 .11 4.041a.75.75 0 0 1 .702-1.017h1.324l.146.015a.75.75 0 0 1 .384.205l.994.994h.68l-.151-2.44a.75.75 0 0 1 .748-.796zm-.611 3.94-.748.045v.001za.75.75 0 0 1-.748.797H3.35a.75.75 0 0 1-.532-.22l.532-.53-.532.53-.876-.876.415 1.092a.75.75 0 0 1 0 .532l-.415 1.09.876-.875c.141-.14.333-.22.532-.22h1.79a.75.75 0 0 1 .748.798l-.154 2.439h.228l.925-2.727.047-.11a.75.75 0 0 1 .663-.4h2.265a.9.9 0 0 0 .442-.16.6.6 0 0 0 .111-.101.6.6 0 0 0-.111-.102.87.87 0 0 0-.442-.16H7.598a.75.75 0 0 1-.663-.4l-.047-.109-.925-2.727h-.228z"/></svg>
